symbols/web/hiking/materialsymbolsoutlined/hiking_wght500grad200_24px.svg

<svg xmlns="http://www.w3.org/2000/svg" height="24" width="24"><path d="M13.925 5.15q-.925 0-1.587-.663-.663-.662-.663-1.612 0-.925.663-1.588Q13 .625 13.925.625q.925 0 1.6.662.675.663.675 1.588 0 .95-.675 1.612-.675.663-1.6.663Zm-6.95 18.475 3.15-16q.175-.825.8-1.275.625-.45 1.35-.45.65 0 1.238.3.587.3.937.875l1 1.6q.375.625.913 1.1.537.475 1.187.75V8.85h2.25v14.775h-2.25V13.4q-.95-.225-1.825-.712-.875-.488-1.575-1.163l-.425 2.125L15.8 15.6v8.025h-2.75v-6.2l-1.5-1.45-1.725 7.65Zm.1-9.725L8.6 6.25l-1.45-.3q-.975-.2-1.812.337Q4.5 6.825 4.3 7.85l-.75 3.925q-.125.55.213 1.062.337.513.862.613Z"/></svg>

<svg xmlns="http://www.w3.org/2000/svg" height="24" width="24"><path d="M13.925 5.15Q13 5.15 12.338 4.487Q11.675 3.825 11.675 2.875Q11.675 1.95 12.338 1.287Q13 0.625 13.925 0.625Q14.85 0.625 15.525 1.287Q16.2 1.95 16.2 2.875Q16.2 3.825 15.525 4.487Q14.85 5.15 13.925 5.15ZM6.975 23.625 10.125 7.625Q10.3 6.8 10.925 6.35Q11.55 5.9 12.275 5.9Q12.925 5.9 13.513 6.2Q14.1 6.5 14.45 7.075L15.45 8.675Q15.825 9.3 16.363 9.775Q16.9 10.25 17.55 10.525V8.85H19.8V23.625H17.55V13.4Q16.6 13.175 15.725 12.688Q14.85 12.2 14.15 11.525L13.725 13.65L15.8 15.6V23.625H13.05V17.425L11.55 15.975L9.825 23.625ZM7.075 13.9 8.6 6.25 7.15 5.95Q6.175 5.75 5.338 6.287Q4.5 6.825 4.3 7.85L3.55 11.775Q3.425 12.325 3.763 12.837Q4.1 13.35 4.625 13.45Z"/></svg>
